icons/badge/question/circle.svg

<svg width="32" height="32" viewBox="0 0 32 32" xmlns="http://www.w3.org/2000/svg"><path fill-rule="evenodd" clip-rule="evenodd" d="M16 4.00003C9.37258 4.00003 4 9.37261 4 16C4 22.6274 9.37258 28 16 28C22.6274 28 28 22.6274 28 16C28 9.37261 22.6274 4.00003 16 4.00003ZM2 16C2 8.26804 8.26801 2.00003 16 2.00003C23.732 2.00003 30 8.26804 30 16C30 23.732 23.732 30 16 30C8.26801 30 2 23.732 2 16ZM17.5 20V23H14.5V20H17.5ZM14 13C14 12.1541 14.2108 11.7034 14.4571 11.4571C14.7034 11.2108 15.1541 11 16 11C16.9753 11 17.4308 11.1356 17.65 11.3C17.7914 11.406 18 11.6516 18 12.5C18 12.8955 17.8915 13.1089 17.7573 13.273C17.587 13.4811 17.3437 13.6523 16.9453 13.9179L16.905 13.9448L16.905 13.9448C16.5558 14.1773 16.0723 14.4992 15.6948 14.9605C15.2665 15.4839 15 16.1455 15 17V18H17V17C17 16.6045 17.1085 16.3911 17.2427 16.227C17.413 16.0189 17.6563 15.8477 18.0547 15.5821L18.095 15.5552C18.4442 15.3227 18.9277 15.0008 19.3052 14.5395C19.7335 14.0161 20 13.3545 20 12.5C20 11.3484 19.7086 10.344 18.85 9.7C18.0692 9.11439 17.0247 9 16 9C14.8459 9 13.7966 9.28921 13.0429 10.0429C12.2892 10.7966 12 11.8459 12 13H14Z"/></svg>

<svg viewBox="0 0 32 32" xmlns="http://www.w3.org/2000/svg"><path fill-rule="evenodd" d="M16 4C9.373 4 4 9.373 4 16s5.373 12 12 12 12-5.373 12-12S22.627 4 16 4zM2 16C2 8.268 8.268 2 16 2s14 6.268 14 14-6.268 14-14 14S2 23.732 2 16zm15.5 4v3h-3v-3h3zM14 13c0-.846.21-1.297.457-1.543.246-.246.697-.457 1.543-.457.975 0 1.43.136 1.65.3.141.106.35.352.35 1.2 0 .396-.108.609-.243.773-.17.208-.413.38-.812.645l-.04.027c-.35.232-.833.554-1.21 1.015-.428.524-.695 1.185-.695 2.04v1h2v-1c0-.395.108-.609.243-.773.17-.208.413-.38.812-.645l.04-.027c.35-.232.833-.554 1.21-1.015.428-.524.695-1.185.695-2.04 0-1.152-.291-2.156-1.15-2.8-.78-.586-1.825-.7-2.85-.7-1.154 0-2.203.29-2.957 1.043C12.289 10.797 12 11.846 12 13h2z"/></svg>
